UI/Misc/SVG/global_outline_24px.svg

<svg width="24" height="24" viewBox="0 0 24 24" fill="none" xmlns="http://www.w3.org/2000/svg">
<path d="M13.1701 2.07002C12.3929 1.97666 11.6073 1.97666 10.8301 2.07002C8.39959 2.35912 6.15953 3.52957 4.53422 5.35967C2.90891 7.18976 2.01123 9.55239 2.01123 12C2.01123 14.4476 2.90891 16.8103 4.53422 18.6404C6.15953 20.4705 8.39959 21.6409 10.8301 21.93C11.6006 22.0233 12.3796 22.0233 13.1501 21.93C15.5806 21.6409 17.8206 20.4705 19.446 18.6404C21.0713 16.8103 21.9689 14.4476 21.9689 12C21.9689 9.55239 21.0713 7.18976 19.446 5.35967C17.8206 3.52957 15.5806 2.35912 13.1501 2.07002H13.1701ZM18.9201 8.00002H16.2601C15.8304 6.77423 15.2916 5.58948 14.6501 4.46002C16.4527 5.08835 17.9686 6.34508 18.9201 8.00002ZM15.0001 12C14.9937 12.6735 14.9132 13.3442 14.7601 14H9.24009C9.08696 13.3442 9.00648 12.6735 9.00009 12C9.00648 11.3266 9.08696 10.6559 9.24009 10H14.7601C14.9132 10.6559 14.9937 11.3266 15.0001 12ZM12.0001 4.00002C12.8387 5.26078 13.5521 6.60048 14.1301 8.00002H9.87009C10.4481 6.60048 11.1615 5.26078 12.0001 4.00002ZM9.35009 4.46002C8.7086 5.58948 8.16977 6.77423 7.74009 8.00002H5.08009C6.03159 6.34508 7.54748 5.08835 9.35009 4.46002ZM4.26009 10H7.20009C6.93342 11.32 6.93342 12.68 7.20009 14H4.26009C3.91331 12.6892 3.91331 11.3108 4.26009 10ZM5.08009 16H7.74009C8.16977 17.2258 8.7086 18.4106 9.35009 19.54C7.54748 18.9117 6.03159 17.655 5.08009 16ZM12.0001 20C11.1615 18.7393 10.4481 17.3996 9.87009 16H14.1301C13.5521 17.3996 12.8387 18.7393 12.0001 20ZM14.6501 19.54C15.2916 18.4106 15.8304 17.2258 16.2601 16H18.9201C17.9686 17.655 16.4527 18.9117 14.6501 19.54ZM16.8001 14C17.0668 12.68 17.0668 11.32 16.8001 10H19.7401C20.0869 11.3108 20.0869 12.6892 19.7401 14H16.8001Z" fill="#0F1621"/>
</svg>

<svg xmlns="http://www.w3.org/2000/svg" width="24" height="24" viewBox="0 0 24 24"><g style="opacity:0"><rect width="24" height="24" style="fill:none"/></g><path d="M13.17,2.07a9.81,9.81,0,0,0-2.34,0,10,10,0,0,0,0,19.86h0a9.65,9.65,0,0,0,2.32,0h0a10,10,0,0,0,0-19.86ZM18.92,8H16.26a21.71,21.71,0,0,0-1.61-3.54A7.94,7.94,0,0,1,18.92,8ZM15,12a9.18,9.18,0,0,1-.24,2H9.24A9.18,9.18,0,0,1,9,12a9.18,9.18,0,0,1,.24-2h5.52A9.18,9.18,0,0,1,15,12ZM12,4a23.24,23.24,0,0,1,2.13,4H9.87A23.24,23.24,0,0,1,12,4Zm-2.65.46A21.71,21.71,0,0,0,7.74,8H5.08A7.94,7.94,0,0,1,9.35,4.46ZM4.26,10H7.2a10.1,10.1,0,0,0,0,4H4.26a7.82,7.82,0,0,1,0-4Zm.82,6H7.74a21.71,21.71,0,0,0,1.61,3.54A7.94,7.94,0,0,1,5.08,16ZM12,20a23.24,23.24,0,0,1-2.13-4h4.26A23.24,23.24,0,0,1,12,20Zm2.65-.46A21.71,21.71,0,0,0,16.26,16h2.66A7.94,7.94,0,0,1,14.65,19.54ZM16.8,14a10.1,10.1,0,0,0,0-4h2.94a7.82,7.82,0,0,1,0,4Z"/></svg>
